X: 1
T: Six Penny Money
R: jig
Z: 2020 John Chambers <jc:trillian.mit.edu>
S: https://www.facebook.com/groups/Fiddletuneoftheday/
S: https://www.facebook.com/groups/Fiddletuneoftheday/photos/
M: 6/8
L: 1/8
K: D
|:\
"D"fAA fAA | "G"BAG "A"FGE | "D"D2D AFA | def "A"e2d |\
"D"fAA fAA |
             "G"BAG "A"FGE | "D"D2D AFA | def "A"e2d ::\
"D"fef "G"gfg | "D"afd "A"ecA |
                                "D"fef "G"gfg | "D"afd "A"e2e |\
"D"fef "G"gfg | "D"afd "A"ecA | "D"AFA AFA | def "A"e2"D"d :|
